shader CombineColor(
    string Mode = "rgb"
        [[ string widget = "mapper",
        string options = "RGB:rgb|HSV:hsv|HSL:hsl|YIQ:YIQ|XYZ:XYZ|xyY:xyY" ]],
    float Red = 0.0,
    float Green = 0.0,
    float Blue = 0.0,
    output color Color = 0.0
) {
    Color = color(Mode, Red, Green, Blue);
}